svgs/samsung_internet_browser.svg

<svg width="192" height="192" viewBox="0 0 192 192" fill="none" xmlns="http://www.w3.org/2000/svg"><path d="M64 151.426c30.61 17.673 69.753 7.185 87.426-23.426 17.673-30.61 7.185-69.752-23.426-87.425C97.39 22.9 58.248 33.389 40.575 64 22.9 94.61 33.389 133.753 64 151.426Z" stroke="#000" stroke-width="12" stroke-linecap="round" stroke-linejoin="round"/><path fill-rule="evenodd" clip-rule="evenodd" d="M62.603 43.811c-21.721-4.938-38.745-2.857-44.542 7.184-9.941 17.218 16.896 51.324 59.942 76.177 43.046 24.853 86.001 31.041 95.942 13.823 5.716-9.9-.726-25.382-15.417-41.479l-4.298 13.441.184.233c4.866 6.184 7.7 11.492 8.913 15.561 1.202 4.035.53 5.718.226 6.244-.304.526-1.424 1.95-5.521 2.926-4.13.984-10.143 1.184-17.932.062-15.507-2.234-35.558-9.345-56.097-21.203-20.54-11.859-36.722-25.668-46.411-37.98-4.867-6.185-7.7-11.492-8.913-15.561-1.203-4.036-.53-5.718-.226-6.244.304-.526 1.424-1.95 5.52-2.926 3.937-.938 9.586-1.164 16.852-.21L62.603 43.81Z" fill="#000"/></svg>

<?xml version="1.0" encoding="UTF-8" standalone="no"?><svg xmlns:android="http://schemas.android.com/apk/res/android" height="192" width="192" xmlns="http://www.w3.org/2000/svg">
  <path d="M64,151.426C94.611,169.099 133.753,158.611 151.426,128C169.099,97.389 158.611,58.248 128,40.575C97.389,22.901 58.248,33.389 40.575,64C22.901,94.611 33.389,133.753 64,151.426Z" fill="#000000" fill-opacity="0.0" stroke="#000000" stroke-linecap="round" stroke-linejoin="round" stroke-width="12"/>
  <path d="M62.603,43.811C40.882,38.873 23.858,40.954 18.061,50.995C8.12,68.214 34.957,102.319 78.003,127.172C121.049,152.025 164.004,158.213 173.945,140.995C179.661,131.095 173.219,115.613 158.528,99.516L154.23,112.957C154.291,113.034 154.353,113.112 154.414,113.19C159.28,119.374 162.114,124.682 163.327,128.751C164.529,132.786 163.857,134.469 163.553,134.995C163.249,135.521 162.129,136.945 158.032,137.921C153.902,138.905 147.889,139.105 140.1,137.983C124.593,135.749 104.542,128.638 84.003,116.78C63.463,104.921 47.28,91.112 37.592,78.8C32.725,72.615 29.892,67.308 28.679,63.239C27.476,59.203 28.149,57.521 28.453,56.995C28.757,56.469 29.877,55.045 33.973,54.069C37.91,53.131 43.558,52.905 50.825,53.858L62.603,43.811Z" fill="#000000" fill-rule="evenOdd"/>
</svg>
